logos/aws-app-mesh.svg

<?xml version="1.0" encoding="UTF-8"?>
<svg width="256px" height="256px" viewBox="0 0 256 256" version="1.1" xmlns="http://www.w3.org/2000/svg" xmlns:xlink="http://www.w3.org/1999/xlink" preserveAspectRatio="xMidYMid">
    <title>AWS App Mesh</title>
    <defs>
        <linearGradient x1="0%" y1="100%" x2="100%" y2="0%" id="linearGradient-1">
            <stop stop-color="#4D27A8" offset="0%"></stop>
            <stop stop-color="#A166FF" offset="100%"></stop>
        </linearGradient>
    </defs>
    <g>
        <rect fill="url(#linearGradient-1)" x="0" y="0" width="256" height="256"></rect>
        <path d="M130.2496,54.0184 C128.8736,55.3944 126.6368,55.3944 125.2608,54.0184 C124.5952,53.3528 124.2272,52.4664 124.2272,51.5224 C124.2272,50.5816 124.5952,49.6952 125.2608,49.0264 C125.9488,48.3416 126.8512,47.996 127.7568,47.996 C128.6592,47.996 129.5616,48.3416 130.2496,49.0264 L130.2496,49.0296 C130.9152,49.6952 131.2832,50.5816 131.2832,51.5224 C131.2832,52.4664 130.9152,53.3528 130.2496,54.0184 L130.2496,54.0184 Z M137.6832,51.5224 C137.6832,48.8696 136.6496,46.3768 134.7744,44.5016 L134.7744,44.5016 C130.9056,40.6328 124.6048,40.6328 120.736,44.5016 C118.8608,46.3768 117.8272,48.8696 117.8272,51.5224 C117.8272,51.9352 117.8976,52.3352 117.9456,52.7384 L101.1872,61.9544 L104.2752,67.5608 L120.7168,58.5176 C120.7232,58.5272 120.7296,58.5368 120.736,58.5432 C122.672,60.4792 125.216,61.4456 127.7568,61.4456 C130.2976,61.4456 132.8416,60.4792 134.7744,58.5464 C134.8032,58.5176 134.8224,58.4824 134.848,58.4536 L155.1104,69.6376 L158.2016,64.0344 L137.5744,52.6488 C137.616,52.2744 137.6832,51.9064 137.6832,51.5224 L137.6832,51.5224 Z M193.6768,172.9048 C192.3456,174.236 190.0224,174.236 188.6912,172.9016 C188.0256,172.236 187.6544,171.3528 187.6544,170.412 C187.6544,169.468 188.0256,168.5816 188.6912,167.916 C189.3568,167.2504 190.24,166.8824 191.184,166.8824 C192.128,166.8824 193.0112,167.2504 193.6768,167.916 L193.6768,167.916 C194.3424,168.5816 194.7136,169.468 194.7136,170.4088 C194.7136,171.3528 194.3424,172.236 193.6768,172.9048 L193.6768,172.9048 Z M198.2016,163.388 C197.2896,162.476 196.2048,161.7944 195.0432,161.3272 L195.0432,150.4664 L188.6432,150.4664 L188.6432,160.9304 C186.9824,161.3464 185.4112,162.14 184.1664,163.388 C182.2912,165.2632 181.2544,167.756 181.2544,170.412 C181.2544,171.612 181.4944,172.7672 181.9008,173.8616 L162.1184,183.8072 L164.992,189.5256 L186.112,178.908 C187.6352,179.82 189.3632,180.3384 191.184,180.3384 C193.8368,180.3384 196.3296,179.3048 198.2016,177.4296 C200.0768,175.5544 201.1136,173.0616 201.1136,170.4088 C201.1136,167.756 200.0768,165.2664 198.2016,163.3912 L198.2016,163.388 Z M61.8336,173.1672 C61.168,172.5016 60.8,171.6184 60.8,170.6744 C60.8,169.7304 61.168,168.8472 61.8336,168.1784 C62.4992,167.5128 63.3824,167.148 64.3264,167.148 C65.2704,167.148 66.1568,167.5128 66.8224,168.1784 L66.8224,168.1816 C67.488,168.8472 67.856,169.7304 67.856,170.6744 C67.856,171.6184 67.488,172.5016 66.8224,173.1672 C65.4912,174.4984 63.1648,174.5016 61.8336,173.1672 L61.8336,173.1672 Z M74.256,170.6744 C74.256,168.0216 73.2224,165.5288 71.3472,163.6536 C70.144,162.4504 68.64,161.676 67.0432,161.244 L67.0432,150.4664 L60.6432,150.4664 L60.6432,161.5192 C59.4112,161.9896 58.2688,162.6936 57.3088,163.6536 C55.4336,165.5288 54.4,168.0216 54.4,170.6744 C54.4,173.3272 55.4336,175.82 57.3088,177.692 C59.1808,179.5672 61.6736,180.6008 64.3264,180.6008 C66.1536,180.6008 67.888,180.0824 69.4112,179.164 L85.8624,187.3336 L88.7072,181.6024 L73.616,174.108 C74.0192,173.02 74.256,171.868 74.256,170.6744 L74.256,170.6744 Z M188.6432,137.6664 L195.0432,137.6664 L195.0432,121.6664 L188.6432,121.6664 L188.6432,137.6664 Z M60.6432,137.6664 L67.0432,137.6664 L67.0432,121.6664 L60.6432,121.6664 L60.6432,137.6664 Z M130.2496,206.9272 C128.8736,208.3032 126.6368,208.3032 125.2608,206.9272 C124.5952,206.2616 124.2272,205.3752 124.2272,204.4312 C124.2272,203.4904 124.5952,202.604 125.2608,201.9384 C125.9488,201.2504 126.8512,200.9048 127.7568,200.9048 C128.6592,200.9048 129.5616,201.2504 130.2496,201.9384 L130.2496,201.9384 C130.9152,202.604 131.2832,203.4904 131.2832,204.4312 C131.2832,205.3752 130.9152,206.2616 130.2496,206.9272 L130.2496,206.9272 Z M150.6816,189.5544 L134.8544,197.5096 C134.8256,197.4808 134.8064,197.4424 134.7744,197.4136 L134.7744,197.4104 C133.6896,196.3256 132.4064,195.5768 131.0432,195.1 L131.0432,172.8664 L124.6432,172.8664 L124.6432,195.0488 C123.2192,195.5192 121.8688,196.2808 120.736,197.4104 C120.7168,197.4328 120.704,197.4584 120.6816,197.4808 L100.1728,187.2952 L97.328,193.0264 L117.9424,203.2632 C117.8976,203.6504 117.8272,204.0344 117.8272,204.4312 C117.8272,207.084 118.8608,209.58 120.736,211.452 C122.672,213.388 125.216,214.3544 127.7568,214.3544 C130.2976,214.3544 132.8416,213.388 134.7744,211.4552 C136.6496,209.58 137.6832,207.084 137.6832,204.4312 C137.6832,204.0504 137.616,203.6824 137.5744,203.308 L153.5552,195.2728 L150.6816,189.5544 Z M191.184,84.4568 C192.0864,84.4568 192.9888,84.7992 193.6768,85.4872 L193.6768,85.4872 C194.3424,86.1528 194.7136,87.0392 194.7136,87.9832 C194.7136,88.924 194.3424,89.8104 193.6768,90.4792 C192.3456,91.8104 190.0224,91.8104 188.6912,90.476 C188.0256,89.8104 187.6544,88.924 187.6544,87.9832 C187.6544,87.0392 188.0256,86.1528 188.6912,85.4872 C189.3792,84.7992 190.2816,84.4568 191.184,84.4568 L191.184,84.4568 Z M165.488,107.9352 L186.3008,96.5816 C187.0368,97.0008 187.8208,97.324 188.6432,97.5416 L188.6432,108.8664 L195.0432,108.8664 L195.0432,97.1288 C196.208,96.636 197.28,95.9256 198.2016,95.004 C200.0768,93.1288 201.1136,90.636 201.1136,87.9832 C201.1136,85.3304 200.0768,82.8376 198.2016,80.9624 L198.2016,80.9592 C194.9408,77.6984 189.9616,77.2216 186.16,79.4616 L169.408,70.2168 L166.3168,75.82 L181.9296,84.4376 C181.5008,85.5544 181.2544,86.748 181.2544,87.9832 C181.2544,89.2632 181.5104,90.4984 181.968,91.6536 L162.4256,102.316 L165.488,107.9352 Z M130.2496,129.532 C128.9184,130.8632 126.592,130.8664 125.2608,129.532 C124.5952,128.8664 124.2272,127.98 124.2272,127.036 C124.2272,126.0952 124.5952,125.212 125.2608,124.5432 C125.9264,123.8776 126.8128,123.5096 127.7568,123.5096 C128.7008,123.5096 129.584,123.8776 130.2496,124.5432 L130.2496,124.5464 C130.9152,125.212 131.2832,126.0952 131.2832,127.036 C131.2832,127.98 130.9152,128.8664 130.2496,129.532 L130.2496,129.532 Z M132.7232,118.5208 C129.6832,116.8184 125.824,116.8184 122.7872,118.5208 L102.0576,107.212 L98.9952,112.828 L118.5056,123.4744 C118.0736,124.5976 117.8272,125.7976 117.8272,127.036 C117.8272,129.6888 118.8608,132.1848 120.736,134.0568 C121.8464,135.1704 123.1936,135.9448 124.6432,136.4216 L124.6432,160.0664 L131.0432,160.0664 L131.0432,136.3704 C132.4288,135.884 133.7088,135.1256 134.7744,134.06 C136.6496,132.1848 137.6832,129.6888 137.6832,127.036 C137.6832,125.7976 137.4368,124.5976 137.0048,123.4744 L154.2496,114.0664 L151.1872,108.4472 L132.7232,118.5208 Z M61.8336,85.4872 C62.5216,84.7992 63.424,84.4568 64.3264,84.4568 C65.232,84.4568 66.1344,84.7992 66.8224,85.4872 L66.8224,85.4872 C67.488,86.1528 67.856,87.0392 67.856,87.9832 C67.856,88.924 67.488,89.8104 66.8224,90.4792 C65.4912,91.8104 63.1648,91.8104 61.8336,90.476 C61.168,89.8104 60.8,88.924 60.8,87.9832 C60.8,87.0392 61.168,86.1528 61.8336,85.4872 L61.8336,85.4872 Z M89.9744,68.124 L69.36,79.4648 C65.552,77.2184 60.576,77.6952 57.3088,80.9592 C55.4336,82.8344 54.4,85.3304 54.4,87.9832 C54.4,90.636 55.4336,93.1288 57.3088,95.004 C58.2752,95.9704 59.408,96.7032 60.6432,97.196 L60.6432,108.8664 L67.0432,108.8664 L67.0432,97.4872 C67.8016,97.2728 68.5248,96.9688 69.2128,96.5784 L87.76,106.7 L90.8224,101.0808 L73.5424,91.6536 C74.0032,90.4984 74.256,89.2632 74.256,87.9832 C74.256,86.7512 74.0128,85.5576 73.584,84.4408 L93.056,73.7304 L89.9744,68.124 Z" fill="#FFFFFF"></path>
    </g>
</svg>

<svg preserveAspectRatio="xMidYMid" viewBox="0 0 256 256" xmlns="http://www.w3.org/2000/svg">
  <defs>
    <linearGradient id="aws-app-mesh_svg__a" x1="0%" x2="100%" y1="100%" y2="0%">
      <stop offset="0%" stop-color="#4D27A8"/>
      <stop offset="100%" stop-color="#A166FF"/>
    </linearGradient>
  </defs>
  <path fill="url(#aws-app-mesh_svg__a)" d="M0 0h256v256H0z"/>
  <path fill="#FFF" d="M130.25 54.018a3.53 3.53 0 0 1-4.99 0 3.507 3.507 0 0 1-1.033-2.496 3.528 3.528 0 0 1 3.53-3.526 3.53 3.53 0 0 1 2.493 1.03v.004a3.505 3.505 0 0 1 1.033 2.492 3.51 3.51 0 0 1-1.033 2.496Zm7.433-2.496a9.864 9.864 0 0 0-2.909-7.02c-3.868-3.87-10.17-3.87-14.038 0a9.864 9.864 0 0 0-2.909 7.02c0 .413.07.813.119 1.216l-16.759 9.216 3.088 5.607 16.442-9.043c.006.01.013.019.019.025a9.899 9.899 0 0 0 7.02 2.903 9.894 9.894 0 0 0 7.018-2.9c.03-.028.048-.064.074-.092l20.262 11.184 3.092-5.604-20.628-11.385c.042-.375.11-.743.11-1.127Zm55.994 121.383c-1.331 1.331-3.655 1.331-4.986-.003a3.501 3.501 0 0 1-1.037-2.49c0-.944.372-1.83 1.037-2.496a3.5 3.5 0 0 1 2.493-1.034 3.5 3.5 0 0 1 2.493 1.034 3.516 3.516 0 0 1 0 4.989Zm4.525-9.517a9.41 9.41 0 0 0-3.159-2.06v-10.862h-6.4v10.464c-1.66.416-3.232 1.21-4.477 2.458a9.869 9.869 0 0 0-2.912 7.024c0 1.2.24 2.355.647 3.45l-19.783 9.945 2.874 5.719 21.12-10.618c1.523.912 3.251 1.43 5.072 1.43a9.85 9.85 0 0 0 7.018-2.908 9.867 9.867 0 0 0 2.912-7.021 9.86 9.86 0 0 0-2.912-7.018v-.003Zm-136.368 9.78a3.5 3.5 0 0 1-1.034-2.494c0-.944.368-1.827 1.034-2.496a3.497 3.497 0 0 1 2.492-1.03c.944 0 1.83.365 2.496 1.03v.004a3.5 3.5 0 0 1 1.034 2.492 3.5 3.5 0 0 1-1.034 2.493c-1.33 1.331-3.657 1.335-4.988 0Zm12.422-2.494a9.864 9.864 0 0 0-2.909-7.02c-1.203-1.204-2.707-1.978-4.304-2.41v-10.778h-6.4v11.053a9.45 9.45 0 0 0-3.334 2.135 9.864 9.864 0 0 0-2.909 7.02 9.85 9.85 0 0 0 2.909 7.018 9.85 9.85 0 0 0 7.017 2.909 9.81 9.81 0 0 0 5.085-1.437l16.451 8.17 2.845-5.732-15.091-7.494a9.86 9.86 0 0 0 .64-3.434Zm114.387-33.008h6.4v-16h-6.4v16Zm-128 0h6.4v-16h-6.4v16Zm69.607 69.261a3.53 3.53 0 0 1-4.99 0 3.507 3.507 0 0 1-1.033-2.496c0-.94.368-1.827 1.034-2.493a3.518 3.518 0 0 1 2.496-1.033c.902 0 1.805.345 2.493 1.033a3.505 3.505 0 0 1 1.033 2.493 3.51 3.51 0 0 1-1.033 2.496Zm20.432-17.373-15.828 7.956c-.028-.03-.048-.068-.08-.096v-.004c-1.084-1.084-2.368-1.833-3.73-2.31v-22.234h-6.4v22.183c-1.425.47-2.775 1.232-3.908 2.361-.02.023-.032.048-.054.07l-20.51-10.185-2.844 5.731 20.614 10.237c-.044.387-.115.771-.115 1.168a9.858 9.858 0 0 0 2.909 7.021 9.899 9.899 0 0 0 7.02 2.902 9.893 9.893 0 0 0 7.018-2.899 9.871 9.871 0 0 0 2.91-7.024c0-.38-.068-.749-.11-1.123l15.981-8.035-2.873-5.719Zm40.502-105.097c.902 0 1.805.342 2.493 1.03a3.521 3.521 0 0 1 0 4.992c-1.331 1.331-3.655 1.331-4.986-.003a3.508 3.508 0 0 1-1.037-2.493c0-.944.372-1.83 1.037-2.496a3.513 3.513 0 0 1 2.493-1.03Zm-25.696 23.478 20.813-11.353a9.81 9.81 0 0 0 2.342.96v11.324h6.4V97.13a9.918 9.918 0 0 0 3.159-2.125 9.867 9.867 0 0 0 2.912-7.02 9.867 9.867 0 0 0-2.912-7.022v-.003c-3.261-3.26-8.24-3.737-12.042-1.497l-16.752-9.245-3.091 5.603 15.613 8.618a9.876 9.876 0 0 0-.676 3.545c0 1.28.256 2.515.714 3.67l-19.542 10.663 3.062 5.62Zm-35.238 21.597c-1.332 1.331-3.658 1.334-4.99 0a3.507 3.507 0 0 1-1.033-2.496c0-.94.368-1.824 1.034-2.493a3.507 3.507 0 0 1 2.496-1.033 3.5 3.5 0 0 1 2.493 1.033v.003a3.498 3.498 0 0 1 1.033 2.49 3.51 3.51 0 0 1-1.033 2.496Zm2.473-11.011c-3.04-1.703-6.899-1.703-9.936 0l-20.73-11.309-3.062 5.616 19.51 10.646a9.91 9.91 0 0 0-.678 3.562 9.858 9.858 0 0 0 2.909 7.02c1.11 1.114 2.458 1.889 3.907 2.366v23.644h6.4V136.37c1.386-.486 2.666-1.244 3.731-2.31a9.871 9.871 0 0 0 2.91-7.024 9.91 9.91 0 0 0-.68-3.562l17.246-9.408-3.063-5.619-18.464 10.074Zm-70.89-33.034a3.513 3.513 0 0 1 2.493-1.03c.906 0 1.808.342 2.496 1.03a3.507 3.507 0 0 1 1.034 2.496c0 .941-.368 1.827-1.034 2.496-1.33 1.331-3.657 1.331-4.988-.003a3.505 3.505 0 0 1-1.034-2.493c0-.944.368-1.83 1.034-2.496Zm28.141-17.363L69.36 79.464c-3.808-2.246-8.784-1.769-12.051 1.495a9.871 9.871 0 0 0-2.909 7.024 9.864 9.864 0 0 0 2.909 7.021 9.86 9.86 0 0 0 3.334 2.192v11.67h6.4V97.487a9.767 9.767 0 0 0 2.17-.909L87.76 106.7l3.062-5.62-17.28-9.426a9.874 9.874 0 0 0 .714-3.67 9.87 9.87 0 0 0-.672-3.543l19.472-10.71-3.082-5.607Z"/>
</svg>
